Automatic/src/svg/core-shader-options.svg

<svg xmlns="http://www.w3.org/2000/svg" xml:space="preserve" width="245.333" height="245.333"><path d="M0 0v-55.397l-27.698 27.698zm-58.226 2.828h55.398L-30.527-24.87ZM4 9.656v55.398l27.698-27.699Zm58.226-2.828H6.828l27.699 27.698zm-55.398-4h55.398L34.527-24.87ZM4-55.397V0l27.698-27.699ZM-2.828 6.828h-55.398l27.699 27.698zM0 65.054V9.656l-27.698 27.699ZM69.882 4.828 2 72.71-65.882 4.828 2-63.054Z" style="fill:#fff;fill-opacity:1;fill-rule:nonzero;stroke:none" transform="matrix(1.33333 0 0 -1.33333 120 129.104)"/><path d="M216 40H40v176h176ZM36 36h184v184H36Z" style="fill:#fff;fill-opacity:1;fill-rule:nonzero;stroke:none" transform="matrix(1.33333 0 0 -1.33333 -48 293.333)"/></svg>

<?xml version="1.0" encoding="UTF-8" standalone="no"?>
<svg
   xmlns:dc="http://purl.org/dc/elements/1.1/"
   xmlns:cc="http://creativecommons.org/ns#"
   xmlns:rdf="http://www.w3.org/1999/02/22-rdf-syntax-ns#"
   xmlns:svg="http://www.w3.org/2000/svg"
   xmlns="http://www.w3.org/2000/svg"
   viewBox="0 0 245.33333 245.33333"
   height="245.33333"
   width="245.33333"
   xml:space="preserve"
   id="svg2"
   version="1.1"><metadata
     id="metadata8"><rdf:RDF><cc:Work
         rdf:about=""><dc:format>image/svg+xml</dc:format><dc:type
           rdf:resource="http://purl.org/dc/dcmitype/StillImage" /></cc:Work></rdf:RDF></metadata><defs
     id="defs6" /><g
     transform="matrix(1.3333333,0,0,-1.3333333,-47.999999,293.33333)"
     id="g10"><g
       transform="translate(126,123.1719)"
       id="g12"><path
         id="path14"
         style="fill:#ffffff;fill-opacity:1;fill-rule:nonzero;stroke:none"
         d="m 0,0 v -55.397 l -27.698,27.698 z M -58.226,2.828 H -2.828 L -30.527,-24.87 Z M 4,9.656 V 65.054 L 31.698,37.355 Z M 62.226,6.828 H 6.828 l 27.699,27.698 z m -55.398,-4 H 62.226 L 34.527,-24.87 Z M 4,-55.397 V 0 L 31.698,-27.699 Z M -2.828,6.828 h -55.398 l 27.699,27.698 z M 0,65.054 V 9.656 L -27.698,37.355 Z M 69.882,4.828 2,72.71 -65.882,4.828 2,-63.054 Z" /></g><path
       id="path16"
       style="fill:#ffffff;fill-opacity:1;fill-rule:nonzero;stroke:none"
       d="M 216,40 H 40 V 216 H 216 Z M 36,36 H 220 V 220 H 36 Z" /></g></svg>
